src/icons/svgs/24/code.svg

<svg width="24" height="24" viewBox="0 0 24 24" fill="none" xmlns="http://www.w3.org/2000/svg">
<path d="M10.7183 8.74554C10.3416 8.36886 9.73152 8.36886 9.35464 8.74554L6.78321 11.317C6.40654 11.6936 6.40654 12.3037 6.78321 12.6806L9.35464 15.2521C9.57723 15.4433 9.82634 15.5357 10.0714 15.5357C10.3165 15.5357 10.5648 15.4415 10.7533 15.2532C11.1299 14.8765 11.1299 14.2664 10.7533 13.8896L8.86205 12L10.7517 10.1104C11.1281 9.73393 11.1281 9.12321 10.7183 8.74554ZM14.5754 8.74554C14.1988 8.36886 13.5887 8.36886 13.2118 8.74554C12.8349 9.12221 12.8351 9.73232 13.2118 10.1092L15.1379 12L13.2483 13.8896C12.8717 14.2663 12.8717 14.8764 13.2483 15.2533C13.4344 15.4433 13.6835 15.5357 13.9286 15.5357C14.1737 15.5357 14.422 15.4415 14.6104 15.2532L17.1818 12.6818C17.5585 12.3051 17.5585 11.695 17.1818 11.3181L14.5754 8.74554ZM18.4286 3H5.57143C4.15112 3 3 4.15152 3 5.57143V18.4286C3 19.8485 4.15112 21 5.57143 21H18.4286C19.8489 21 21 19.8485 21 18.4286V5.57143C21 4.15152 19.8469 3 18.4286 3ZM19.0714 18.4286C19.0714 18.7831 18.783 19.0714 18.4286 19.0714H5.57143C5.21697 19.0714 4.92857 18.7831 4.92857 18.4286V5.57143C4.92857 5.21689 5.21697 4.92857 5.57143 4.92857H18.4286C18.783 4.92857 19.0714 5.21689 19.0714 5.57143V18.4286Z" fill="black"/>
</svg>

<svg width="24" height="24" viewBox="0 0 24 24" xmlns="http://www.w3.org/2000/svg">
    <path d="M10.718 8.746a.964.964 0 0 0-1.363 0l-2.572 2.571a.964.964 0 0 0 0 1.364l2.572 2.571c.222.191.471.284.716.284a.965.965 0 0 0 .682-1.646L8.862 12l1.89-1.89a.938.938 0 0 0-.034-1.364Zm3.857 0a.964.964 0 1 0-1.363 1.363L15.138 12l-1.89 1.89a.964.964 0 0 0 1.362 1.363l2.572-2.571a.964.964 0 0 0 0-1.364l-2.607-2.572ZM18.43 3H5.57A2.571 2.571 0 0 0 3 5.571V18.43A2.571 2.571 0 0 0 5.571 21H18.43A2.571 2.571 0 0 0 21 18.429V5.57A2.573 2.573 0 0 0 18.429 3Zm.642 15.429a.644.644 0 0 1-.642.642H5.57a.644.644 0 0 1-.642-.642V5.57c0-.354.288-.642.642-.642h12.86c.354 0 .642.288.642.642v12.86Z"/>
</svg>
